X: 463
T:  The Ring. Polish Song No. 14.(Das Ringlein.)	 Op. 74
C: Fryderyk Chopin
%%abc-version 2.0
%%abcx-abcm2ps-target-version 5.9.1 (29 Sep 2008)
%%abc-creator hum2abc beta
%%abcx-conversion-date 2021/10/03 11:23:30
%%abc-edited-by Antoni Szymański
%%abcx-initial-encoding-date 2020-02-10
%%humdrum-veritas 2913148518
%%humdrum-veritas-data 1063919972
%%linebreak <none>
%%barnumbers 0
L: 1/4
M: 3/4
N: Derived from 074-1c-LW-014.krn
P: 17 | POLISH SONGS
Q: "MODERATO. M. M. [quarter] = 100." 1/4=100
V: 1 clef=treble
V: 2 clef=treble
V: 3 clef=bass
K: Eb
[V:1] z3 | 
[V:2] g/f/Bg & AAG | 
[V:3] [DB,E,][DB,E,][EB,E,] | 
[V:1] z3 | 
[V:2] g/f/Bg & !accent!AAG | 
[V:3] [D_CE,][DB,E,][EB,E,] | 
[V:1] z3 | 
[V:2] g/f/Bf & AAA | 
[V:3] [DB,E,][DB,E,][DB,E,] | 
[V:1] z3 | 
[V:2] [e3G3] | 
[V:3] [E2B,2E,2]E,, | 
[V:1] G/ A/cB/A/ | 
[V:2] z[FCA,][FCA,] | 
[V:3] zF,,F,, | 
[V:1] G/ ^F/GG | 
[V:2] z[ECG,][ECG,] | 
[V:3] zC,C, | 
[V:1] G/ A/cB/A/ | 
[V:2] z[FCA,][FCA,] | 
[V:3] F,3 | 
[V:1] A2G | 
[V:2] z[ECA,][ECG,] | 
[V:3] C,3 | 
[V:1] G/ A/cB/A/ | 
[V:2] z[FDA,][FDA,] | 
[V:3] B,,3 | 
[V:1] G/ ^F/GG | 
[V:2] z[EB,G,][EB,G,] | 
[V:3] [E,3E,,3] | 
[V:1] G/ A/cB/A/ | 
[V:2] z[FDA,][FDA,] | 
[V:3] B,,3 | 
[V:1] A2G | 
[V:2] z[EB,G,][EB,G,] | 
[V:3] [E,3E,,3] | 
[V:1] G>A G/ ^F/ | 
[V:2] z[FDG,][FDG,] | 
[V:3] =B,,3 | 
[V:1] G/ ^F/GA | 
[V:2] z[ECG,][ECG,] | 
[V:3] C,3 | 
[V:1] =A/ B/dc/B/ | 
[V:2] z[AFB,][AFB,] | 
[V:3] D,3 | 
[V:1] B2=B | 
[V:2] z[GB,][=BE=B,] | 
[V:3] E,2G,, | 
[V:1] d>c B/ _A/ | 
[V:2] z[EC][FC] | 
[V:3] A,,3 | 
[V:1] A/ G/cB | 
[V:2] z[GEB,][GEB,] | 
[V:3] [B,,3B,,,3] | 
[V:1] c/ B/=A_A | 
[V:2] z[FDA,][FDA,] | 
[V:3] B,,,3 | 
[V:1] ^F2G | 
[V:2] z[^FE=A,][GEB,] | 
[V:3] E,,3 | 
[V:1] d>c B/ A/ | 
[V:2] z[G=B,][AFC] | 
[V:3] A,,3 | 
[V:1] A/ G/cB | 
[V:2] z[GE_B,][G=EB,] | 
[V:3] B,,3 | 
[V:1] c/ B/AF | 
[V:2] z[AFB,][ADB,] | 
[V:3] [B,,3B,,,3] | 
[V:1] FEz | 
[V:2] z[EG,][gG] | 
[V:3] [B,,2E,,2][EB,E,] | 
[V:1] z3 | 
[V:2] g/f/Bg & AAG | 
[V:3] [DB,E,][DB,E,][EB,E,] | 
[V:1] z3 | 
[V:2] g/f/Bg & AAG | 
[V:3] [D_CE,][DB,E,][EB,E,] | 
[V:1] z3 | 
[V:2] g/f/Bf & AAA | 
[V:3] [DB,E,][DB,E,][DB,E,] | 
[V:1] z3 | 
[V:2] [e3G3] | 
[V:3] [E2B,2E,2]E,, | 
[V:1] G/ A/cB/A/ | 
[V:2] z[FCA,][FCA,] | 
[V:3] zF,,F,, | 
[V:1] G/ ^F/GG | 
[V:2] z[ECG,][ECG,] | 
[V:3] zC,C, | 
[V:1] G/ A/cB/A/ | 
[V:2] z[FCA,][FCA,] | 
[V:3] F,3 | 
[V:1] A2G | 
[V:2] z[EC][ECG,] | 
[V:3] C,3 | 
[V:1] G/ A/cB/A/ | 
[V:2] z[FDA,][FDA,] | 
[V:3] B,,3 | 
[V:1] G/ ^F/GG | 
[V:2] z[EB,G,][EB,G,] | 
[V:3] [E,3E,,3] | 
[V:1] G/ A/cB/A/ | 
[V:2] z[FDA,][FDA,] | 
[V:3] B,,3 | 
[V:1] A2G | 
[V:2] z[EB,G,][EB,G,] | 
[V:3] [E,3E,,3] | 
[V:1] G>A G/ ^F/ | 
[V:2] z[FDG,][FDG,] | 
[V:3] =B,,3 | 
[V:1] G/ ^F/GA | 
[V:2] z[ECG,][ECG,] | 
[V:3] C,3 | 
[V:1] =A/ B/dc/B/ | 
[V:2] z[AFB,][AFB,] | 
[V:3] D,3 | 
[V:1] B2=B | 
[V:2] z[GB,][=BE=B,] | 
[V:3] E,2G,, | 
[V:1] d>c B/ _A/ | 
[V:2] z[EC][FC] | 
[V:3] A,,3 | 
[V:1] A/ G/cB | 
[V:2] z[GEB,][GEB,] | 
[V:3] [B,,3B,,,3] | 
[V:1] c/ B/=A_A | 
[V:2] z[FDA,][FDA,] | 
[V:3] B,,,3 | 
[V:1] ^F2G | 
[V:2] z[^FE=A,][GEB,] | 
[V:3] E,,3 | 
[V:1] d>c B/ A/ | 
[V:2] z[G=B,][AFC] | 
[V:3] A,,3 | 
[V:1] A/ G/cB | 
[V:2] z[GE_B,][G=EB,] | 
[V:3] B,,3 | 
[V:1] c/ B/AF | 
[V:2] z[AFB,][ADB,] | 
[V:3] [B,,3B,,,3] | 
[V:1] FEz | 
[V:2] z[EG,][gG] | 
[V:3] [B,,2E,,2][EB,E,] | 
[V:1] z3 | 
[V:2] g/f/Bg & AAG | 
[V:3] [DB,E,][DB,E,][EB,E,] | 
[V:1] z3 | 
[V:2] g/f/Bg & !accent!AAG | 
[V:3] [D_CE,][DB,E,][EB,E,] | 
[V:1] z3 | 
[V:2] g/f/Bf & AAA | 
[V:3] [DB,E,][DB,E,][DB,E,] | 
[V:1] z3 |]  
[V:2] [e3G3] |]  
[V:3] [E2B,2E,2]E,, |]
